svg/fluentui-system-icons/ic_fluent_animal_cat_16_regular.svg

<svg width="16" height="16" viewBox="0 0 16 16" fill="none" xmlns="http://www.w3.org/2000/svg">
<path d="M3.64062 14.9999H4.65169L4.66015 15H11.6833C12.5411 15 13.2364 14.3042 13.2364 13.4459V6.91378C14.6429 6.81259 15.4721 5.23751 14.7111 4.00948L14.2757 3.30678C13.9284 2.74635 13.3162 2.40541 12.6572 2.40541H11.4807V1.92162C11.4807 1.41262 11.0683 1 10.5596 1C9.35267 1 8.37429 1.97892 8.37429 3.18649V6.122C7.27775 6.24515 6.44488 6.77357 5.83176 7.50972C5.14398 8.33552 4.74168 9.40897 4.50271 10.4337C4.2623 11.4646 4.17781 12.4878 4.15248 13.2481C4.14274 13.5404 4.14169 13.7957 4.14414 13.9999H3.64062C2.73422 13.9999 1.99944 13.2647 1.99944 12.3578C1.99944 11.9419 2.15719 11.5415 2.44083 11.2374L3.23849 10.3823C4.03191 9.53172 4.29692 8.31512 3.92921 7.21134C3.77339 6.74361 3.51086 6.31861 3.16243 5.97L2.3798 5.18697C2.18464 4.99171 1.86824 4.99172 1.67309 5.18698C1.47794 5.38225 1.47795 5.69883 1.67311 5.89409L2.45573 6.67712C2.69445 6.91595 2.8743 7.20712 2.98105 7.52756C3.23297 8.28376 3.05141 9.11725 2.50784 9.69997L1.71018 10.5551C1.25381 11.0443 1 11.6886 1 12.3578C1 13.817 2.18225 14.9999 3.64062 14.9999ZM10.4812 2.00255V2.90541C10.4812 3.18155 10.705 3.40541 10.9809 3.40541H12.6572C12.9704 3.40541 13.2613 3.56741 13.4263 3.83372L13.8617 4.53642C14.2355 5.13957 13.8019 5.91892 13.0926 5.91892H12.7367C12.4607 5.91892 12.237 6.14278 12.237 6.41892V13.4459C12.237 13.7519 11.9891 14 11.6833 14H11.1295V13.446C11.1295 12.0056 9.96247 10.8379 8.52286 10.8379H7.64497C7.36898 10.8379 7.14525 11.0617 7.14525 11.3379C7.14525 11.614 7.36898 11.8379 7.64497 11.8379H8.52286C9.41049 11.8379 10.1301 12.5579 10.1301 13.446V14H5.14366C5.14119 13.8073 5.14199 13.5629 5.15137 13.2814C5.17542 12.5595 5.25553 11.6064 5.47601 10.6609C5.69793 9.70927 6.05281 8.80637 6.59956 8.14991C7.13103 7.51178 7.8509 7.09459 8.87401 7.09459C9.15 7.09459 9.37373 6.87074 9.37373 6.59459V3.18649C9.37373 2.55754 9.86283 2.0429 10.4812 2.00255Z" fill="#212121"/>
</svg>

<svg xmlns="http://www.w3.org/2000/svg" width="16" height="16"><path d="M3.64 15h8.043c.858 0 1.553-.696 1.553-1.554V6.914c1.407-.101 2.236-1.676 1.475-2.905l-.435-.702a1.904 1.904 0 0 0-1.619-.902h-1.176v-.483A.921.921 0 0 0 10.56 1a2.186 2.186 0 0 0-2.186 2.186v2.936c-1.096.123-1.93.652-2.542 1.388-.688.826-1.09 1.899-1.33 2.924a14.837 14.837 0 0 0-.35 2.814c-.01.292-.01.548-.008.752h-.503a1.642 1.642 0 0 1-1.2-2.763l.797-.855a3.177 3.177 0 0 0-.076-4.412l-.782-.783a.5.5 0 1 0-.707.707l.783.783A2.176 2.176 0 0 1 2.508 9.7l-.798.855A2.643 2.643 0 0 0 3.64 15Zm6.841-12.997v.902a.5.5 0 0 0 .5.5h1.676c.313 0 .604.162.77.429l.435.702a.905.905 0 0 1-.77 1.383h-.355a.5.5 0 0 0-.5.5v7.027a.554.554 0 0 1-.554.554h-.553v-.554a2.607 2.607 0 0 0-2.607-2.608h-.878a.5.5 0 0 0 0 1h.878c.887 0 1.607.72 1.607 1.608V14H5.144c-.003-.193-.002-.437.007-.719.024-.722.105-1.675.325-2.62.222-.952.577-1.855 1.124-2.511.531-.638 1.25-1.055 2.274-1.055a.5.5 0 0 0 .5-.5V3.186c0-.628.489-1.143 1.107-1.183Z"/></svg>
